!!!OTL: SO HAB ICH NUN DIE STADT VERLASSEN
!!!ARE: Europa, Mitteleuropa, Deutschland
!!!SCT: B0520
!!!YEM: Copyright 1995, estate of Helmut Schaffrath.
**kern
*ICvox
*Ivox
*M4/4
*k[]
*C:
{4G
=1
8G
8c
8E
8G
4.c
8G
=2
4A
4G
8r}
{8c
8B
8A
=3
4.d
8B
4d
8c
8A
=4
2G
4r}
{4G
=5
4A
4A
8.f
16e
8d
8c
=6
8c
8B
4B
8r}
{8d
8c
8d
=7
4.e
8c
8B
8G
8A
8B
=8
2c
4r}
==
!!!AGN: Wander - Lied
!!!ONB: ESAC (Essen Associative Code) Database: BOEHME
!!!AMT: simple quadruple
!!!AIN: vox
!!!EED: Helmut Schaffrath
!!!EEV: 1.0
*-
